X: 999
T: Her Dem Edip Meyl-i Cefa
C: Dede Efendi
O: Turkey
F: http://compmusic.upf.edu/node/140
N: beyati--sarki--agirduyek--her_dem--dede_efendi
N: makam= beyati
N: form= sarki
N: usul= agirduyek = 8/4
M: 8/4
L: 1/16
K: C _2/4B   
Q: 1/4=72
%%MIDI tuningsystem comma53
G2A4G2 B2c2 d2f2 e2d2 c2B2 A4 z4  | \
w:  ARANAĞME  | 
e2f2 e2d2 a2g2 f2e2 d3c B2c2 d4 z4  | 
w:   | 
c2d4a2 a3g g3f f3e _1/4e2d2 g^3/4f_3/4ed c2B2  | \
w:   | 
z2e2 d2f2 e2d2 c2B2 A2c4BA A8  | 
w:   | 
G2A4G2 B2c2 d2f2 e2d2 c2B2 A4 z4  | \
w:  ARANAĞME  | 
e2f2 e2d2 a2g2 f2e2 d3c B2c2 d4 z4  | 
w:   | 
c2d4a2 a3g g3f f3e _1/4e2d2 g^3/4f_3/4ed c2B2  | \
w:   | 
z2e2 d2f2 e2d2 c2B2 A2c4BA A8  | 
w:   | 
c4 d4 d2f2 e2d2 d2c4B2 B3A G4  | B4 c8 d2e2 d2c2 B2{e}dc c6z2  | 
w:  Her  *  *  *  *  *  dem  *  *  e  |  dip   | 
d4 e2f2 a2g2 f2e2 e2f2 e2d2 d2c2 e2d2  | \
w:  meyl_ *  *  *  *  *  *  i  *  *  *  *  *  *  ce  | 
c4 d4 ^3/4c2d2 e2{f}ed d8 d=cBA Bcd2  | 
w:  fa   *  *  *  *  *  *  *  *  SAZ  | 
d4 e2f2 a2g2 f2e2 d6z2 a8  | (3a2g2a2 (3g2^3/4f2g2 (3=f2e2f2 e2d2 z2a2 g2^3/4f2 _3/4e2d2 c2B2  | 
w:  Za *  *  *  *  *  *  lim  ne  |  ler  *  *  *  *  *  *  *  *  *  *  ne *  *  ler   | 
d4 c2B2 g3^3/4f _2/4e2d2 {e}d2c4B2 B2A4A2  | \
w:  et *  *  *  *  *  *  *  tin  *  *  *  *  ba  | 
A2c4BA A4 B2c2 d3c B2c2 dcBA Bcd2  | 
w:  na   *  *  *  *  SAZ  | 
d4 e2f2 a2g2 f2e2 d6z2 a8  | (3a2g2a2 (3g2^3/4f2g2 (3=f2e2f2 e2d2 z2a2 g2^3/4f2 _3/4e2d2 c2B2  | 
w:  Za *  *  *  *  *  *  lim  ne  |  ler  *  *  *  *  *  *  *  *  *  *  ne *  *  ler   | 
d4 c2B2 g3^3/4f _2/4e2d2 {e}d2c4B2 B2A4A2  | \
w:  et *  *  *  *  *  *  *  tin  *  *  *  *  ba  | 
A2c4BA A4 ^3/4f2g2 a3g f2g2 a4 z4  | 
w:  na   *  *  *  SAZ  | 
g4 a4 a2c'2 b2a2 a2g4^3/4f2 ^2/4f3e d4  | \
w:  Düş *  *  *  *  *  mez_ *  *  i  | 
^3/4f4 g8 a4 _b4 a2g2 f2_2/4e2 d2c2  | 
w:  di   | 
d6^3/4f2 _3/4e2f2 e2d2 d4 {e}d2c2 B6cd  | \
w:  bu  *  *  *  *  *  iş  *  *  *  *  sa  | 
c4 d4 ^3/4c2d2 e2{f}ed d8 d=cBA Bcd2  | 
w:  na   *  *  *  *  *  *  *  *  SAZ  | 
d4 e2f2 a2g2 f2e2 d6z2 a8  | (3a2g2a2 (3g2^3/4f2g2 (3=f2e2f2 e2d2 z2a2 g2^3/4f2 _3/4e2d2 c2B2  | 
w:  Za *  *  *  *  *  *  lim  ne  |  ler  *  *  *  *  *  *  *  *  *  *  ne *  *  ler   | 
d4 c2B2 g3^3/4f _2/4e2d2 {e}d2c4B2 B2A4A2  | \
w:  et *  *  *  *  *  *  *  tin  *  *  *  *  ba  | 
A2c4BA A4 B2c2 d3c B2c2 dcBA Bcd2  | 
w:  na   *  *  *  *  SAZ  | 
d4 e2f2 a2g2 f2e2 d6z2 a8  | (3a2g2a2 (3g2^3/4f2g2 (3=f2e2f2 e2d2 z2a2 g2^3/4f2 _3/4e2d2 c2B2  | 
w:  Za *  *  *  *  *  *  lim  ne  |  ler  *  *  *  *  *  *  *  *  *  *  ne *  *  ler   | 
d4 c2B2 g3^3/4f _2/4e2d2 {e}d2c4B2 B2A4A2  | \
w:  et *  *  *  *  *  *  *  tin  *  *  *  *  ba  | 
A2c4BA A4 |
w:  na   *  *  *  SAZ  | 


